src/lib/assets/filter.svg

<svg width="61" height="55" viewBox="0 0 61 55" fill="none" xmlns="http://www.w3.org/2000/svg">
<path d="M0.459048 3.53725C1.2474 1.87285 2.92371 0.8125 4.76562 0.8125H56.2344C58.0811 0.8125 59.749 1.87285 60.5354 3.53725C61.3336 5.20164 61.0834 7.17104 59.8205 8.59596L38.125 35.2322V50.375C38.125 51.8166 37.3148 53.1391 36.0162 53.7824C34.7295 54.4258 33.1807 54.2947 32.025 53.425L24.4 47.7063C23.435 46.9914 22.875 45.8596 22.875 44.6562V35.2322L1.07727 8.59596C-0.0887602 7.17104 -0.329424 5.20164 0.459168 3.53725H0.459048Z" fill="#B2BFCD"/>
</svg>

<svg xmlns="http://www.w3.org/2000/svg" width="61" height="55" fill="none"><path fill="#B2BFCD" d="M.459 3.537A4.764 4.764 0 0 1 4.766.813h51.468a4.749 4.749 0 0 1 4.301 2.724 4.583 4.583 0 0 1-.714 5.059L38.124 35.232v15.143c0 1.442-.81 2.764-2.109 3.407a3.809 3.809 0 0 1-3.991-.357L24.4 47.706a3.787 3.787 0 0 1-1.525-3.05v-9.424L1.077 8.596A4.766 4.766 0 0 1 .46 3.537Z"/></svg>
